X:260
T:Crib of Perches
M:C|
L:1/8
S:THSP
R:reel
Z:
K:D
"D"d2fd AGFA|"G"BE (3EGE BAFA|"D"d2fd AGFD|"G"~E3F "A"GABc|
"D"d2fd AGFA|"G"BE (3EGE BAFB|"D"A2FA DAFA|"A"EDCD EFGA:||:
"D"fd (3ded fdgd|fd (3ded fgaf|"G"eggf ~g3f|efga bgeg|
"D"fAdf "A"eAce|"G"~d3B "D"AGFB|A2FA DAFA|"A"EDCD EFGA:||
